src/image/partner-big.svg

<?xml version="1.0" encoding="UTF-8"?>
<svg width="27px" height="30px" viewBox="0 0 27 30" version="1.1" xmlns="http://www.w3.org/2000/svg" xmlns:xlink="http://www.w3.org/1999/xlink">
    <!-- Generator: Sketch 58 (84663) - https://sketch.com -->
    <title>partner big</title>
    <desc>Created with Sketch.</desc>
    <g id="partner-big" stroke="none" stroke-width="1" fill="none" fill-rule="evenodd">
        <path d="M21.9288198,27.761884 L23.8822518,27.761884 L19.7737467,22.6178368 L23.1156706,17.9000539 L21.950262,17.0626465 L18.4466775,21.587539 L17.242773,20.3366998 C11.1905713,14.0485508 7.98419368,10.4098742 7.30906998,8.97610347 C5.92286039,6.03218864 7.61702725,2.57555577 11.1563814,2.57555577 C13.1629026,2.57555577 14.8288133,3.82737914 16.2096326,6.14623099 L17.4889514,5.27155554 C16.2350943,2.48618787 14.3186863,1.19618181 11.5871319,1.19618181 C7.35063598,1.19618181 4.93818869,3.45960493 4.93818869,6.31292728 C4.93818869,8.07373293 5.66504196,9.8908661 7.17496616,11.7869578 L8.10779178,12.9583563 L6.93798599,13.8931784 C3.09631213,16.9631597 1.71131714,20.1171955 2.55334403,23.5313643 C3.25853203,26.3906921 6.37341664,28.5 10.3056143,28.5 C12.788986,28.5 15.0856547,27.436148 17.2547447,25.2334988 L18.3136562,24.1582042 L21.9288198,27.761884 Z M9.3728418,14.3360452 L17.5690813,23.1691038 L16.4539648,24.188748 C15.2150788,25.321565 14.2041219,26.0557549 13.3436179,26.4050888 C10.5270529,27.5485135 7.32108149,27.0911218 5.57951007,25.2256312 C3.72122653,23.235124 3.49499607,20.1443871 5.1807812,17.5654845 C5.70264802,16.7671362 6.73094835,15.9464721 8.32625575,14.9740158 L9.3728418,14.3360452 Z" id="Combined-Shape" stroke="#858585" stroke-width="3"></path>
    </g>
</svg>

<svg width="27" height="30" xmlns="http://www.w3.org/2000/svg"><path d="M21.929 27.762h1.953l-4.108-5.144 3.342-4.718-1.166-.837-3.503 4.525-1.204-1.251c-6.052-6.288-9.259-9.927-9.934-11.36-1.386-2.945.308-6.401 3.847-6.401 2.007 0 3.673 1.251 5.054 3.57l1.279-.874c-1.254-2.786-3.17-4.076-5.902-4.076-4.236 0-6.649 2.264-6.649 5.117 0 1.76.727 3.578 2.237 5.474l.933 1.171-1.17.935c-3.842 3.07-5.227 6.224-4.385 9.638.706 2.86 3.82 4.969 7.753 4.969 2.483 0 4.78-1.064 6.949-3.267l1.059-1.075 3.615 3.604zM9.373 14.336l8.196 8.833-1.115 1.02c-1.239 1.133-2.25 1.867-3.11 2.216-2.817 1.144-6.023.686-7.764-1.18-1.859-1.99-2.085-5.08-.4-7.66.523-.798 1.55-1.619 3.146-2.591l1.047-.638z" stroke="#858585" stroke-width="3" fill="none" fill-rule="evenodd"/></svg>
